X:1
T:Samuel, vu che havite
T:Adriano Banchieri Bolognese
T:Source : Canzonette a tre voci di A.Banchieri---Venetia---R.Amadino---1597. Editor : André Vierendeels  (11/03/17).
T:Notes : Original clefs : C1, C1, C4 Editorial accidentals above the staff Sub-heading : "Mascherata di Hebrei"
T:Samuel, vu che havite
T:©
T:©
T:©
T:©
T:©
C:Adriano Banchieri Bolognese
Z:©
%%score [ 1 2 3 ]
L:1/8
Q:1/4=103
M:4/4
K:F
V:1 treble nm="Soprano 1" snm="S 1"
V:2 treble nm="Soprano 2" snm="S 2"
V:3 treble-8 nm="Tenor" snm="T"
V:1
"^1)" c2 B2 A4 | A2 B2 c4 | G2 F2 E4 | E2 F2 G4 | z2 GA B2 A2 | G2 G2 A4 | c2 B2 A4 | A2 B2 c4 | %8
w: Sa- mu- el,|Sa- mu- el,|Sa- mu- el,|Sa- mu- el,|vu che'ha- vi- te|lo cor- tel,|Sa- mu- el,|Sa- mu- el,|
w: Ben- ia- min,|Ben- ia- min,|Ben- ia- min,|Ben- ia- min,|vu chs'ha- vi- te|lo Ca- tin,|Ben- ia- min,|Ben- ia- min,|
 G2 F2 E4 | E2 F2 G4 | z2 GA B2 A2 | G2 G2 A4 | A2 A2 G2 GG | F2 F2 E4 | A2 B2 c2 cc | F2 G2 A4 | %16
w: Sa- mu- el,|Sa- mu- el,|vu che'ha- vi- te|lo cor- tel,|e ve- nu- to lo|ba- da- nai,|e ve- nu- to lo|ba- da- nai,|
w: Ben- ia- min,|Ben- ia- min,|vu che'ha- vi- te|lo Ca- tin,|||||
 D2 E2 F2 FF | G2 E2 F4 | z4 A2 A2 | G2 GG F2 E2 | D4 E2 E2 | F2 FF F2 E2 | F4 z2 FF | %23
w: e ve- nu- to lo|ba- da- nai,|e ve-|nu- to lo ba- da-|nai, e ve-|nu- to lo ba- da-|nai, mor- do-|
w: |||||||
 E2 EE F2 AA | G2 GG A2 FF | E2 EE F4 | A2 A2 G2 GG | F2 F2 E4 | A2 B2 c2 cc | F2 G2 A4 | %30
w: chi, mor- do chai, mor- do|chi, mor- do chai, mor- do|chi, mor- do chai,|e ve- nu- to lo|ba- da- nai,|e ve- nu- to lo|ba- da- nai,|
w: |||||||
 D2 E2 F2 FF | G2 E2 F4 | z4 A2 A2 | G2 GG F2 E2 | D4 E2 E2 | F2 FF F2 E2 | F2 AA G2 GG | %37
w: e ve- nu- to lo|ba- da- nai,|e ve-|nu- to lo ba- da-|nai, e ve-|nu- to lo ba- da-|nai, mor- do- chi, mor- do|
w: |||||||
 A2 FF E2 EE | F2 AA G2 GG | A2 FF E2 EE | F8 |] %41
w: chai, mor- do chi, mor- do|chai, mor- do chi, mor- do|chai, mor- do chi, mor- do-|chai.|
w: ||||
V:2
"^2)""^1)" A2 B2 c4 | c2 B2 A4 | E2 F2 G4 | G2 F2 E4 | z2 EE F2 F2 | D2 E2 F4 | A2 B2 c4 | %7
w: Sa- mu- el,|Sa- mu- el,|Sa- mu- el,|Sa- mu- el,|vu che'ha- vi- te|lo cor- tel,|Sa- mu- el,|
w: Ma- nas- ses,|Ma- nas- ses,|Ma- nas- ses,|Ma- nas- ses,|vu che'ha- vi- te|lo sber- les,|Ma- nas- ses,|
 c2 B2 A4 | E2 F2 G4 | F2 E2 E4 | z2 EE F2 F2 | D2 E2 F4 | z8 | A2 A2 G2 GG | F2 F2 E4 | %15
w: Sa- mu- el,|Sa- mu- el,|Sa- mu- el,|vu che'ha- vi- te|lo cor- tel,||e ve- vu- to lo|ba- da- nai,|
w: Ma- nas- ses,|Ma- nas- ses,|Ma- nas- ses,|vu che'ha- vi- te|le sber- les||||
 D2 d2 c2 cc | B2 B2 A4 | z4 A2 A2 | G2 GG F2 E2 | D4 z4 | z4 G2 A2 | B2 BB B2 G2 | A4 z2 AA | %23
w: e ve- nu- to lo|ba- da- nai,|e ve-|nu- to lo ba- da-|nai,|e ve-|nu- to lo ba- da-|nai, mor- do-|
w: ||||||||
 G2 GG A2 FF | E2 EE F2 AA | G2 GG A4 | z8 | A2 A2 G2 GG | F2 F2 E4 | D2 d2 c2 cc | B2 B2 A4 | %31
w: chi, mor- do chai, mor- do||||||||
w: ||||||||
 z4 A2 A2 | G2 GG F2 E2 | D4 z4 | z4 G2 A2 | B2 BB B2 G2 | A2 FF E2 EE | F2 AA G2 GG | %38
w: |||e ve-|nu- to lo ba- da-|nai, mor- do- chi, mor- do-|chai, mor- do- chi, mor- do-|
w: |||||||
 A2 FF E2 EE | F2 AA G2 GG | A8 |] %41
w: chai, mor- do- chi, mor- do|chai, mor- do- chi, mor- do-|chai.|
w: |||
V:3
"^3)""^1)" F2 F2 F4 | F2 F2 F4 | c2 c2 c4 | c2 c2 c4 | z2 cc B2 F2 | B2 c2 F4 | F2 F2 F4 | %7
w: Sa- mu- el,|Sa- mu- el,|Sa- mu- el,|Sa- mu- el,|vu che'ha- vi- te|lo cor- tel,|Sa- mu- el,|
 F2 F2 F4 | c2 c2 c4 | c2 c2 c4 | z2 cc B2 F2 | B2 c2 F4 | z8 | z8 | d2 d2 c2 cc | B2 B2 A4 | %16
w: Sa- mu- el,|Sa- mu- el,|Sa- mu- el,|vu che'ha- vi- te|lo cor- tel,|||e ve- nu- to lo|ba- da nai,|
 G2 G2 F2 FF | E2 E2 D4 | z4 F2 F2 | G2 GG A2 A2 | B4 c2 c2 | d2 dd B2 c2 | F4 z2 FF | %23
w: e ve- nu- to lo|ba- da- nai,|e ve-|nu- to lo ba- da-|nai, e ve-|nu- to nlo ba- da-|nai, mor- do-|
 c2 cc F2 FF | C2 CC F2 FF | c2 cc F4 | z8 | z8 | d2 d2 c2 cc | B2 B2 A4 | G2 G2 F2 FF | E2 E2 D4 | %32
w: chi, mor- do chai, mor- do|chi, mor- do chai, mor- do|chi, mor- do chai,|||e ve- nu- to lo|ba- da- nai,|e ve- vu- to lo|ba- da- nai,|
 z4 F2 F2 | G2 GG A2 A2 | B4 c2 c2 | d2 dd B2 c2 | F2 FF c2 cc | F2 FF C2 CC | F2 FF c2 cc | %39
w: e ve-|nu- to lo ba- da-|nai, e ve-|nu- to lo ba- da-|nai, mor- do- chi, mor- do-|chai, mor- do- chi, mor- do-|chai, mor- do chi, mor- do-|
 F2 FF C2 CC | F8 |] %41
w: chai, mor- do- chi, mor- do-|chai.|

